;FLAVOR:Marlin
;TIME:7394
;Filament used: 4.90316m
;Layer height: 0.2
;MINX:58.701
;MINY:58.701
;MINZ:0.2
;MAXX:176.299
;MAXY:176.299
;MAXZ:14
;Generated with Cura_SteamEngine 5.2.1
M140 S60
M105
M190 S60
M104 S200
M105
M109 S200
M82 ;absolute extrusion mode
M201 X500.00 Y500.00 Z100.00 E5000.00 ;Setup machine max acceleration
M203 X500.00 Y500.00 Z10.00 E50.00 ;Setup machine max feedrate
M204 P500.00 R1000.00 T500.00 ;Setup Print/Retract/Travel acceleration
M205 X8.00 Y8.00 Z0.40 E5.00 ;Setup Jerk
M220 S100 ;Reset Feedrate
M221 S100 ;Reset Flowrate

G28 ;Home

G92 E0 ;Reset Extruder
G1 Z2.0 F3000 ;Move Z Axis up
G1 X10.1 Y20 Z0.28 F5000.0 ;Move to start position
G1 X10.1 Y200.0 Z0.28 F1500.0 E15 ;Draw the first line
G1 X10.4 Y200.0 Z0.28 F5000.0 ;Move to side a little
G1 X10.4 Y20 Z0.28 F1500.0 E30 ;Draw the second line
G92 E0 ;Reset Extruder
G1 Z2.0 F3000 ;Move Z Axis up

G92 E0
G92 E0
G1 F1500 E-6.5
;LAYER_COUNT:70
;LAYER:0
M107
G0 F6000 X76.225 Y75.622 Z0.2
;TYPE:SKIRT
G1 F1500 E0
G1 F1200 X76.898 Y74.968 E0.03121
G1 X78.088 Y73.863 E0.08522
G1 X79.167 Y72.912 E0.13306
G1 X80.125 Y72.106 E0.1747
G1 X81.254 Y71.201 E0.22283
G1 X82.533 Y70.227 E0.2763
G1 X83.292 Y69.675 E0.30751
G1 X84.459 Y68.863 E0.3548
G1 X85.191 Y68.373 E0.3841
G1 X86.129 Y67.768 E0.42122
G1 X87.195 Y67.112 E0.46285
G1 X87.957 Y66.661 E0.4923
G1 X88.919 Y66.114 E0.52911
G1 X90.144 Y65.451 E0.57544
G1 X90.827 Y65.098 E0.60101
G1 X91.948 Y64.542 E0.64263
G1 X92.95 Y64.07 E0.67947
G1 X94.381 Y63.435 E0.73154
G1 X94.958 Y63.192 E0.75236
G1 X96.438 Y62.601 E0.80537
G1 X97.783 Y62.105 E0.85305
G1 X98.966 Y61.698 E0.89466
G1 X99.836 Y61.417 E0.92506
G1 X101.032 Y61.054 E0.96663
G1 X101.913 Y60.804 E0.99709
G1 X103.124 Y60.485 E1.03875
G1 X104.526 Y60.15 E1.08669
G1 X105.937 Y59.849 E1.13468
G1 X107.019 Y59.642 E1.17132
G1 X107.901 Y59.489 E1.20109
G1 X109.138 Y59.298 E1.24272
G1 X110.567 Y59.111 E1.29065
G1 X111.475 Y59.01 E1.32104
G1 X112.865 Y58.883 E1.36746
G1 X113.605 Y58.829 E1.39214
G1 X114.713 Y58.766 E1.42905
G1 X115.963 Y58.72 E1.47066
G1 X117.595 Y58.701 E1.52494
G1 X119.02 Y58.72 E1.57234
G1 X120.099 Y58.758 E1.60825
G1 X121.202 Y58.817 E1.64499
G1 X122.618 Y58.923 E1.69222
G1 X123.552 Y59.012 E1.72342
G1 X124.435 Y59.111 E1.75298
G1 X125.866 Y59.298 E1.80098
G1 X127.103 Y59.489 E1.84261
G1 X128.688 Y59.774 E1.89617
G1 X129.724 Y59.984 E1.93133
G1 X130.475 Y60.149 E1.9569
G1 X131.694 Y60.438 E1.99857
G1 X133.094 Y60.805 E2.04671
G1 X134.48 Y61.205 E2.09469
G1 X135.352 Y61.475 E2.12505
G1 X136.541 Y61.868 E2.1667
G1 X137.399 Y62.17 E2.19695
G1 X138.755 Y62.676 E2.24509
G1 X139.917 Y63.141 E2.28672
G1 X140.932 Y63.571 E2.32338
G1 X142.052 Y64.072 E2.36419
G1 X143.056 Y64.544 E2.40109
G1 X144.177 Y65.1 E2.44271
G1 X145.453 Y65.77 E2.49064
G1 X146.232 Y66.198 E2.52021
G1 X147.198 Y66.751 E2.55723
G1 X148.272 Y67.396 E2.5989
G1 X149.043 Y67.876 E2.6291
G1 X150.092 Y68.559 E2.67074
G1 X151.1 Y69.245 E2.71129
G1 X151.712 Y69.677 E2.73621
G1 X152.607 Y70.33 E2.77305
G1 X153.753 Y71.205 E2.82101
G1 X154.73 Y71.987 E2.86263
G1 X155.417 Y72.558 E2.89234
G1 X156.231 Y73.258 E2.92805
G1 X156.933 Y73.882 E2.95929
G1 X158.219 Y75.081 E3.01777
G1 X159.377 Y76.224 E3.07189
G1 X160.031 Y76.897 E3.1031
G1 X161.136 Y78.087 E3.15711
G1 X162.087 Y79.166 E3.20495
G1 X162.893 Y80.124 E3.24659
G1 X163.911 Y81.397 E3.3008
G1 X164.772 Y82.531 E3.34816
G1 X165.324 Y83.29 E3.37937
G1 X165.819 Y83.994 E3.408
G1 X166.442 Y84.91 E3.44484
G1 X167.125 Y85.959 E3.48648
G1 X167.887 Y87.193 E3.53471
G1 X168.338 Y87.955 E3.56417
G1 X168.885 Y88.917 E3.60097
G1 X169.548 Y90.142 E3.6473
G1 X169.901 Y90.825 E3.67287
G1 X170.457 Y91.946 E3.71449
G1 X171 Y93.103 E3.757
G1 X171.564 Y94.379 E3.8034
G1 X171.807 Y94.956 E3.82422
G1 X172.396 Y96.43 E3.87702
G1 X172.895 Y97.781 E3.92492
G1 X173.302 Y98.964 E3.96653
G1 X173.54 Y99.695 E3.9921
G1 X173.986 Y101.167 E4.04326
G1 X174.157 Y101.77 E4.0641
G1 X174.561 Y103.307 E4.11696
G1 X174.892 Y104.711 E4.16494
G1 X175.151 Y105.935 E4.20655
G1 X175.358 Y107.017 E4.24319
G1 X175.511 Y107.899 E4.27296
G1 X175.702 Y109.136 E4.31459
G1 X175.907 Y110.708 E4.36732
G1 X175.976 Y111.331 E4.38817
G1 X176.117 Y112.862 E4.43931
G1 X176.171 Y113.603 E4.46402
G1 X176.226 Y114.542 E4.4953
G1 X176.27 Y115.629 E4.53149
G1 X176.296 Y116.848 E4.57204
G1 X176.299 Y117.788 E4.6033
G1 X176.284 Y118.868 E4.63923
G1 X176.242 Y120.096 E4.6801
G1 X176.183 Y121.2 E4.71687
G1 X176.077 Y122.616 E4.7641
G1 X175.988 Y123.55 E4.7953
G1 X175.889 Y124.435 E4.82492
G1 X175.702 Y125.864 E4.87285
G1 X175.511 Y127.101 E4.91448
G1 X175.354 Y128.004 E4.94497
G1 X175.117 Y129.233 E4.9866
G1 X174.85 Y130.483 E5.02911
G1 X174.56 Y131.7 E5.07072
G1 X174.144 Y133.277 E5.12497
G1 X173.795 Y134.479 E5.1666
G1 X173.571 Y135.207 E5.19193
G1 X173.085 Y136.677 E5.24343
G1 X172.832 Y137.394 E5.26871
G1 X172.325 Y138.753 E5.31696
G1 X171.86 Y139.915 E5.35859
G1 X171.505 Y140.758 E5.38901
G1 X170.929 Y142.052 E5.43612
G1 X170.457 Y143.054 E5.47296
G1 X169.901 Y144.175 E5.51458
G1 X169.233 Y145.449 E5.56242
G1 X168.803 Y146.23 E5.59208
G1 X168.253 Y147.191 E5.6289
G1 X167.609 Y148.265 E5.67055
G1 X167.125 Y149.041 E5.70097
G1 X166.35 Y150.228 E5.74812
G1 X165.757 Y151.096 E5.78309
G1 X165.324 Y151.71 E5.80807
G1 X164.671 Y152.605 E5.84492
G1 X163.796 Y153.751 E5.89288
G1 X162.893 Y154.876 E5.94086
G1 X162.087 Y155.834 E5.9825
G1 X161.134 Y156.915 E6.03043
G1 X159.92 Y158.218 E6.08966
G1 X158.775 Y159.378 E6.14388
G1 X158.102 Y160.032 E6.17509
G1 X156.912 Y161.137 E6.2291
G1 X155.833 Y162.088 E6.27694
G1 X154.875 Y162.894 E6.31858
G1 X153.746 Y163.799 E6.3667
G1 X152.467 Y164.773 E6.42017
G1 X151.708 Y165.325 E6.45139
G1 X150.541 Y166.137 E6.49867
G1 X149.809 Y166.627 E6.52797
G1 X148.871 Y167.232 E6.5651
G1 X147.805 Y167.888 E6.60673
G1 X147.043 Y168.339 E6.63618
G1 X146.081 Y168.886 E6.67299
G1 X144.856 Y169.549 E6.71931
G1 X144.173 Y169.902 E6.74488
G1 X143.052 Y170.458 E6.7865
G1 X142.05 Y170.93 E6.82334
G1 X140.619 Y171.565 E6.87541
G1 X140.042 Y171.808 E6.89624
G1 X138.562 Y172.399 E6.94924
G1 X137.217 Y172.895 E6.99692
G1 X136.034 Y173.302 E7.03853
G1 X135.164 Y173.583 E7.06894
G1 X133.968 Y173.946 E7.11051
G1 X133.087 Y174.196 E7.14097
G1 X131.876 Y174.515 E7.18262
G1 X130.474 Y174.85 E7.23057
G1 X129.063 Y175.151 E7.27855
G1 X127.981 Y175.358 E7.31519
G1 X127.099 Y175.511 E7.34497
G1 X125.862 Y175.702 E7.3866
G1 X124.433 Y175.889 E7.43453
G1 X123.525 Y175.99 E7.46492
G1 X122.135 Y176.117 E7.51134
G1 X121.395 Y176.171 E7.53602
G1 X120.287 Y176.234 E7.57293
G1 X119.037 Y176.28 E7.61453
G1 X117.405 Y176.299 E7.66882
G1 X115.98 Y176.28 E7.71622
G1 X114.901 Y176.242 E7.75213
G1 X113.798 Y176.183 E7.78887
G1 X112.382 Y176.077 E7.83609
G1 X111.448 Y175.988 E7.8673
G1 X110.565 Y175.889 E7.89685
G1 X109.134 Y175.702 E7.94485
G1 X107.897 Y175.511 E7.98648
G1 X106.312 Y175.226 E8.04004
G1 X105.276 Y175.016 E8.0752
G1 X104.525 Y174.851 E8.10078
G1 X103.306 Y174.562 E8.14245
G1 X101.906 Y174.195 E8.19058
G1 X100.52 Y173.795 E8.23856
G1 X99.648 Y173.525 E8.26892
G1 X98.459 Y173.132 E8.31057
G1 X97.601 Y172.83 E8.34083
G1 X96.245 Y172.324 E8.38897
G1 X95.083 Y171.859 E8.43059
G1 X94.068 Y171.429 E8.46726
G1 X92.948 Y170.928 E8.50807
G1 X91.944 Y170.456 E8.54497
G1 X90.823 Y169.9 E8.58658
G1 X89.547 Y169.23 E8.63452
G1 X88.768 Y168.802 E8.66408
G1 X87.802 Y168.249 E8.7011
G1 X86.728 Y167.604 E8.74277
G1 X85.957 Y167.124 E8.77298
G1 X84.77 Y166.349 E8.82013
G1 X83.902 Y165.756 E8.85509
G1 X83.288 Y165.323 E8.88008
G1 X82.393 Y164.67 E8.91693
G1 X81.247 Y163.795 E8.96489
G1 X80.27 Y163.013 E9.00651
G1 X79.583 Y162.442 E9.03622
G1 X78.768 Y161.741 E9.07198
G1 X78.067 Y161.118 E9.10317
G1 X76.78 Y159.918 E9.16169
G1 X75.623 Y158.776 E9.21576
G1 X74.852 Y157.98 E9.25262
G1 X73.862 Y156.912 E9.30106
G1 X72.913 Y155.834 E9.34883
G1 X72.107 Y154.876 E9.39047
G1 X71.204 Y153.751 E9.43845
G1 X70.329 Y152.605 E9.4864
G1 X69.603 Y151.608 E9.52742
G1 X69.179 Y151.004 E9.55197
G1 X68.558 Y150.09 E9.58872
G1 X67.875 Y149.041 E9.63035
G1 X67.391 Y148.265 E9.66077
G1 X66.747 Y147.191 E9.70242
G1 X66.197 Y146.23 E9.73925
G1 X65.449 Y144.853 E9.79137
G1 X65.099 Y144.175 E9.81675
G1 X64.543 Y143.054 E9.85837
G1 X64.071 Y142.052 E9.89521
G1 X63.436 Y140.621 E9.94728
G1 X63.193 Y140.044 E9.9681
G1 X62.604 Y138.57 E10.0209
G1 X62.105 Y137.219 E10.0688
G1 X61.698 Y136.036 E10.11041
G1 X61.417 Y135.166 E10.14082
G1 X61.054 Y133.97 E10.18239
G1 X60.804 Y133.089 E10.21285
G1 X60.485 Y131.878 E10.2545
G1 X60.15 Y130.476 E10.30244
G1 X59.849 Y129.065 E10.35043
G1 X59.642 Y127.983 E10.38707
G1 X59.489 Y127.101 E10.41684
G1 X59.298 Y125.864 E10.45847
G1 X59.111 Y124.435 E10.50641
G1 X59.01 Y123.527 E10.53679
G1 X58.883 Y122.137 E10.58322
G1 X58.829 Y121.397 E10.60789
G1 X58.774 Y120.459 E10.63915
G1 X58.73 Y119.371 E10.67536
G1 X58.704 Y118.152 E10.71592
G1 X58.701 Y117.212 E10.74718
G1 X58.716 Y116.132 E10.78311
G1 X58.758 Y114.904 E10.82397
G1 X58.817 Y113.8 E10.86074
G1 X58.923 Y112.384 E10.90797
G1 X59.012 Y111.45 E10.93918
G1 X59.111 Y110.565 E10.9688
G1 X59.298 Y109.136 E11.01673
G1 X59.489 Y107.899 E11.05836
G1 X59.646 Y106.996 E11.08885
G1 X59.883 Y105.767 E11.13048
G1 X60.15 Y104.517 E11.17299
G1 X60.44 Y103.3 E11.2146
G1 X60.856 Y101.723 E11.26884
G1 X61.205 Y100.521 E11.31047
G1 X61.429 Y99.793 E11.33581
G1 X61.915 Y98.323 E11.3873
G1 X62.168 Y97.606 E11.41259
G1 X62.675 Y96.247 E11.46084
G1 X63.14 Y95.085 E11.50246
G1 X63.495 Y94.242 E11.53289
G1 X64.071 Y92.948 E11.58
G1 X64.543 Y91.946 E11.61684
G1 X65.099 Y90.825 E11.65845
G1 X65.767 Y89.551 E11.7063
G1 X66.197 Y88.77 E11.73595
G1 X66.747 Y87.809 E11.77278
G1 X67.391 Y86.735 E11.81443
G1 X67.875 Y85.959 E11.84485
G1 X68.65 Y84.772 E11.892
G1 X69.243 Y83.904 E11.92696
G1 X69.676 Y83.29 E11.95195
G1 X70.329 Y82.395 E11.9888
G1 X71.204 Y81.249 E12.03676
G1 X72.107 Y80.124 E12.08474
G1 X72.913 Y79.166 E12.12638
G1 X73.866 Y78.085 E12.17431
G1 X75.08 Y76.782 E12.23354
G1 X76.225 Y75.622 E12.28775
G0 F6000 X76.504 Y75.909
G1 F1200 X77.177 Y75.255 E12.31897
G1 X78.352 Y74.163 E12.37232
G1 X79.291 Y73.334 E12.41398
G1 X80.526 Y72.295 E12.46766
G1 X81.503 Y71.514 E12.50926
G1 X82.769 Y70.55 E12.56218
G1 X83.66 Y69.904 E12.59879
G1 X84.794 Y69.118 E12.64468
G1 X85.316 Y68.769 E12.66556
G1 X86.196 Y68.199 E12.70044
G1 X87.514 Y67.387 E12.75193
G1 X88.155 Y67.009 E12.77668
G1 X89.109 Y66.466 E12.81319
G1 X90.208 Y65.87 E12.85477
G1 X91.005 Y65.457 E12.88462
G1 X92.27 Y64.831 E12.93157
G1 X93.12 Y64.432 E12.9628
G1 X94.536 Y63.804 E13.01432
G1 X95.234 Y63.511 E13.0395
G1 X96.395 Y63.046 E13.08109
G1 X97.752 Y62.541 E13.12925
G1 X99.228 Y62.033 E13.18117
G1 X99.952 Y61.8 E13.20647
G1 X101.148 Y61.437 E13.24804
G1 X102.015 Y61.191 E13.27801
G1 X103.401 Y60.828 E13.32567
G1 X104.796 Y60.499 E13.37334
G1 X106.02 Y60.24 E13.41495
G1 X107.094 Y60.035 E13.45132
G1 X107.962 Y59.885 E13.48061
G1 X109.377 Y59.668 E13.52823
G1 X110.619 Y59.507 E13.56988
G1 X111.512 Y59.408 E13.59976
G1 X112.758 Y59.293 E13.64138
G1 X113.518 Y59.236 E13.66673
G1 X114.728 Y59.166 E13.70704
G1 X115.978 Y59.12 E13.74865
G1 X117.591 Y59.101 E13.8023
G1 X119.006 Y59.119 E13.84937
G1 X119.944 Y59.151 E13.88058
G1 X121.173 Y59.216 E13.92152
G1 X122.58 Y59.321 E13.96844
G1 X123.629 Y59.422 E14.00349
G1 X124.384 Y59.507 E14.02876
G1 X125.627 Y59.668 E14.07045
G1 X127.226 Y59.915 E14.12427
G1 X128.609 Y60.166 E14.17102
G1 X129.639 Y60.375 E14.20597
G1 X130.25 Y60.508 E14.22677
G1 X131.783 Y60.873 E14.27918
G1 X133.166 Y61.24 E14.32677
G1 X134.369 Y61.589 E14.36844
G1 X135.226 Y61.855 E14.39828
G1 X136.553 Y62.295 E14.44478
G1 X137.259 Y62.545 E14.46969
G1 X138.433 Y62.981 E14.51134
G1 X139.912 Y63.572 E14.56432
G1 X140.776 Y63.939 E14.59554
G1 X141.882 Y64.434 E14.63584
G1 X142.878 Y64.903 E14.67246
G1 X143.999 Y65.459 E14.71408
G1 X145.385 Y66.187 E14.76615
G1 X145.934 Y66.489 E14.78699
G1 X146.992 Y67.094 E14.82752
G1 X148.066 Y67.739 E14.86919
G1 X148.825 Y68.212 E14.89894
G1 X150.002 Y68.98 E14.94568
G1 X150.87 Y69.572 E14.98063
G1 X151.383 Y69.933 E15.00149
G1 X152.365 Y70.648 E15.04189
G1 X153.361 Y71.406 E15.08352
G1 X154.588 Y72.387 E15.13577
G1 X155.069 Y72.787 E15.15658
G1 X155.868 Y73.472 E15.19158
G1 X156.803 Y74.305 E15.23323
G1 X158.1 Y75.521 E15.29236
G1 X159.09 Y76.503 E15.33874
G1 X159.744 Y77.176 E15.36996
G1 X160.836 Y78.351 E15.42331
G1 X161.665 Y79.29 E15.46497
G1 X162.702 Y80.523 E15.51855
G1 X163.593 Y81.64 E15.56608
G1 X164.449 Y82.767 E15.61315
G1 X165.071 Y83.624 E15.64837
G1 X165.488 Y84.219 E15.67253
G1 X166.106 Y85.128 E15.70909
G1 X166.789 Y86.177 E15.75073
G1 X167.612 Y87.512 E15.80289
G1 X167.99 Y88.153 E15.82764
G1 X168.533 Y89.107 E15.86415
G1 X169.129 Y90.206 E15.90573
G1 X169.542 Y91.003 E15.93559
G1 X170.098 Y92.124 E15.97721
G1 X170.634 Y93.265 E16.01913
G1 X171.195 Y94.534 E16.06528
G1 X171.488 Y95.232 E16.09046
G1 X171.953 Y96.393 E16.13206
G1 X172.457 Y97.745 E16.18005
G1 X172.966 Y99.222 E16.23201
G1 X173.201 Y99.95 E16.25745
G1 X173.564 Y101.147 E16.29905
G1 X173.809 Y102.012 E16.32896
G1 X174.128 Y103.222 E16.37058
G1 X174.501 Y104.794 E16.42431
G1 X174.76 Y106.018 E16.46592
G1 X174.965 Y107.092 E16.50229
G1 X175.115 Y107.96 E16.53159
G1 X175.332 Y109.374 E16.57917
G1 X175.493 Y110.615 E16.62079
G1 X175.592 Y111.51 E16.65074
G1 X175.707 Y112.756 E16.69236
G1 X175.764 Y113.514 E16.71764
G1 X175.833 Y114.706 E16.75735
G1 X175.87 Y115.644 E16.78858
G1 X175.896 Y116.849 E16.82866
G1 X175.899 Y117.789 E16.85993
G1 X175.881 Y119.005 E16.90038
G1 X175.849 Y119.942 E16.93156
G1 X175.784 Y121.171 E16.97249
G1 X175.679 Y122.578 E17.01942
G1 X175.59 Y123.512 E17.05063
G1 X175.493 Y124.383 E17.07977
G1 X175.332 Y125.625 E17.12143
G1 X175.093 Y127.177 E17.17366
G1 X174.986 Y127.793 E17.19445
G1 X174.695 Y129.3 E17.2455
G1 X174.499 Y130.219 E17.27676
G1 X174.128 Y131.778 E17.33006
G1 X173.76 Y133.165 E17.37778
G1 X173.411 Y134.367 E17.41941
G1 X173.145 Y135.224 E17.44926
G1 X172.707 Y136.545 E17.49555
G1 X172.457 Y137.254 E17.52055
G1 X172.021 Y138.429 E17.56224
G1 X171.44 Y139.885 E17.61438
G1 X171.197 Y140.463 E17.63523
G1 X170.567 Y141.882 E17.68687
G1 X170.168 Y142.732 E17.7181
G1 X169.462 Y144.155 E17.77093
G1 X168.811 Y145.389 E17.81734
G1 X168.509 Y145.937 E17.83815
G1 X167.909 Y146.986 E17.87834
G1 X167.199 Y148.169 E17.92423
G1 X166.868 Y148.7 E17.94504
G1 X166.106 Y149.872 E17.99154
G1 X165.429 Y150.866 E18.03154
G1 X165.001 Y151.474 E18.05627
G1 X164.353 Y152.363 E18.09286
G1 X163.595 Y153.359 E18.13449
G1 X162.586 Y154.618 E18.18815
G1 X161.663 Y155.712 E18.23576
G1 X160.696 Y156.802 E18.28422
G1 X159.48 Y158.099 E18.34336
G1 X158.496 Y159.091 E18.38983
G1 X157.823 Y159.745 E18.42104
G1 X156.648 Y160.837 E18.47439
G1 X155.709 Y161.666 E18.51605
G1 X154.474 Y162.705 E18.56973
G1 X153.497 Y163.486 E18.61133
G1 X152.231 Y164.45 E18.66426
G1 X151.34 Y165.096 E18.70086
G1 X150.206 Y165.882 E18.74675
G1 X149.684 Y166.231 E18.76764
G1 X148.804 Y166.801 E18.80251
G1 X147.486 Y167.613 E18.854
G1 X146.845 Y167.991 E18.87875
G1 X145.891 Y168.534 E18.91526
G1 X144.792 Y169.13 E18.95684
G1 X143.995 Y169.543 E18.9867
G1 X142.73 Y170.169 E19.03364
G1 X141.88 Y170.568 E19.06487
G1 X140.464 Y171.196 E19.11639
G1 X139.766 Y171.489 E19.14157
G1 X138.605 Y171.954 E19.18317
G1 X137.248 Y172.459 E19.23133
G1 X135.772 Y172.967 E19.28325
G1 X135.048 Y173.2 E19.30854
G1 X133.852 Y173.563 E19.35011
G1 X132.985 Y173.809 E19.38009
G1 X131.599 Y174.172 E19.42774
G1 X130.204 Y174.501 E19.47541
G1 X128.98 Y174.76 E19.51702
G1 X127.906 Y174.965 E19.55339
G1 X127.038 Y175.115 E19.58269
G1 X125.623 Y175.332 E19.6303
G1 X124.381 Y175.493 E19.67196
G1 X123.488 Y175.592 E19.70184
G1 X122.242 Y175.707 E19.74346
G1 X121.482 Y175.764 E19.76881
G1 X120.272 Y175.834 E19.80912
G1 X119.022 Y175.88 E19.85072
G1 X117.409 Y175.899 E19.90437
G1 X115.994 Y175.881 E19.95144
G1 X115.056 Y175.849 E19.98266
G1 X113.827 Y175.784 E20.02359
G1 X112.42 Y175.679 E20.07052
G1 X111.371 Y175.578 E20.10557
G1 X110.616 Y175.493 E20.13084
G1 X109.373 Y175.332 E20.17253
G1 X107.774 Y175.085 E20.22634
