;FLAVOR:Marlin
;TIME:6944
;Filament used: 3.66182m
;Layer height: 0.2
;MINX:56.851
;MINY:76.627
;MINZ:0.2
;MAXX:144.077
;MAXY:165.507
;MAXZ:33
;Generated with Cura_SteamEngine 5.2.1
M140 S60
M105
M190 S60
M104 S200
M105
M109 S200
M82 ;absolute extrusion mode
M201 X500.00 Y500.00 Z100.00 E5000.00 ;Setup machine max acceleration
M203 X500.00 Y500.00 Z10.00 E50.00 ;Setup machine max feedrate
M204 P500.00 R1000.00 T500.00 ;Setup Print/Retract/Travel acceleration
M205 X8.00 Y8.00 Z0.40 E5.00 ;Setup Jerk
M220 S100 ;Reset Feedrate
M221 S100 ;Reset Flowrate

G28 ;Home

G92 E0 ;Reset Extruder
G1 Z2.0 F3000 ;Move Z Axis up
G1 X10.1 Y20 Z0.28 F5000.0 ;Move to start position
G1 X10.1 Y200.0 Z0.28 F1500.0 E15 ;Draw the first line
G1 X10.4 Y200.0 Z0.28 F5000.0 ;Move to side a little
G1 X10.4 Y20 Z0.28 F1500.0 E30 ;Draw the second line
G92 E0 ;Reset Extruder
G1 Z2.0 F3000 ;Move Z Axis up

G92 E0
G92 E0
G1 F1500 E-6.5
;LAYER_COUNT:165
;LAYER:0
M107
G0 F6000 X89.246 Y81.548 Z0.2
;TYPE:SKIRT
G1 F1500 E0
G1 F1200 X89.993 Y80.848 E0.03405
G1 X91.684 Y79.46 E0.10681
G1 X92.319 Y78.99 E0.13309
G1 X92.998 Y78.588 E0.15933
G1 X93.55 Y78.324 E0.17968
G1 X95.479 Y77.494 E0.24953
G1 X96.219 Y77.219 E0.27579
G1 X96.984 Y77.02 E0.30208
G1 X97.717 Y76.905 E0.32676
G1 X99.845 Y76.673 E0.39795
G1 X100.633 Y76.627 E0.42421
G1 X101.422 Y76.661 E0.45047
G1 X102.238 Y76.782 E0.47791
G1 X104.361 Y77.212 E0.54996
G1 X105.126 Y77.408 E0.57622
G1 X105.868 Y77.68 E0.60251
G1 X106.667 Y78.076 E0.63217
G1 X108.504 Y79.12 E0.70244
G1 X109.17 Y79.544 E0.7287
G1 X109.789 Y80.034 E0.75496
G1 X109.96 Y80.199 E0.76286
G1 X110.159 Y80.37 E0.77159
G1 X110.617 Y80.843 E0.79349
G1 X112.011 Y82.41 E0.86325
G1 X112.505 Y83.025 E0.88948
G1 X112.935 Y83.688 E0.91577
G1 X113.296 Y84.393 E0.94211
G1 X114.191 Y86.382 E1.01465
G1 X114.478 Y87.118 E1.04093
G1 X114.69 Y87.879 E1.0672
G1 X114.843 Y88.849 E1.09986
G1 X115.05 Y91.039 E1.17303
G1 X115.085 Y91.828 E1.1993
G1 X115.039 Y92.616 E1.22555
G1 X114.835 Y93.731 E1.26325
G1 X114.62 Y94.56 E1.29173
G1 X114.384 Y95.314 E1.31801
G1 X114.072 Y96.039 E1.34426
G1 X113.688 Y96.729 E1.37053
G1 X113.237 Y97.378 E1.39681
G1 X112.723 Y97.977 E1.42307
G1 X112.15 Y98.521 E1.44935
G1 X111.526 Y99.004 E1.47559
G1 X111.411 Y99.076 E1.4801
G1 X111.333 Y99.239 E1.48611
G1 X110.923 Y99.914 E1.51238
G1 X110.447 Y100.544 E1.53864
G1 X109.909 Y101.123 E1.56493
G1 X109.316 Y101.644 E1.59119
G1 X108.673 Y102.102 E1.61744
G1 X107.987 Y102.493 E1.6437
G1 X107.006 Y102.907 E1.67912
G1 X105.859 Y103.301 E1.71946
G1 X105.475 Y103.422 E1.73285
G1 X104.101 Y103.815 E1.78038
G1 X102.456 Y104.274 E1.83718
G1 X101.353 Y104.566 E1.87513
G1 X100.412 Y104.754 E1.90705
G1 X98.28 Y105.045 E1.97862
G1 X97.493 Y105.112 E2.00489
G1 X96.703 Y105.1 E2.03117
G1 X95.919 Y105.007 E2.05742
G1 X95.148 Y104.835 E2.0837
G1 X94.399 Y104.587 E2.10994
G1 X93.678 Y104.264 E2.13622
G1 X92.994 Y103.87 E2.16247
G1 X92.545 Y103.557 E2.18068
G1 X90.077 Y101.706 E2.28328
G1 X89.47 Y101.201 E2.30955
G1 X88.917 Y100.637 E2.33582
G1 X88.424 Y100.02 E2.36209
G1 X87.853 Y99.095 E2.39824
G1 X86.687 Y96.877 E2.48158
G1 X86.355 Y96.161 E2.50783
G1 X86.098 Y95.414 E2.53411
G1 X85.917 Y94.646 E2.56035
G1 X85.856 Y94.25 E2.57368
G1 X85.552 Y91.904 E2.65236
G1 X85.49 Y91.117 E2.67862
G1 X85.508 Y90.328 E2.70486
G1 X85.606 Y89.544 E2.73114
G1 X85.7 Y89.092 E2.7465
G1 X86.217 Y86.925 E2.8206
G1 X86.439 Y86.167 E2.84687
G1 X86.736 Y85.435 E2.87314
G1 X87.152 Y84.661 E2.90237
G1 X88.29 Y82.803 E2.97483
G1 X88.736 Y82.151 E3.00111
G1 X89.246 Y81.548 E3.02738
G0 F6000 X89.566 Y81.792
G1 F1200 X90.247 Y81.157 E3.05834
G1 X91.938 Y79.769 E3.13111
G1 X92.557 Y79.313 E3.15668
G1 X93.22 Y78.923 E3.18226
G1 X93.708 Y78.692 E3.20022
G1 X95.637 Y77.862 E3.27007
G1 X96.359 Y77.595 E3.29567
G1 X97.104 Y77.404 E3.32125
G1 X97.76 Y77.303 E3.34333
G1 X99.888 Y77.071 E3.41452
G1 X100.656 Y77.027 E3.44011
G1 X101.424 Y77.064 E3.46568
G1 X102.159 Y77.174 E3.4904
G1 X104.282 Y77.604 E3.56244
G1 X105.027 Y77.796 E3.58803
G1 X105.748 Y78.064 E3.61362
G1 X106.469 Y78.423 E3.64041
G1 X108.306 Y79.467 E3.71068
G1 X108.954 Y79.882 E3.73628
G1 X109.556 Y80.361 E3.76186
G1 X110.318 Y81.109 E3.79738
G1 X111.712 Y82.676 E3.86713
G1 X112.193 Y83.276 E3.89271
G1 X112.608 Y83.923 E3.91828
G1 X112.931 Y84.557 E3.94194
G1 X113.826 Y86.546 E4.01449
G1 X114.105 Y87.263 E4.04008
G1 X114.308 Y88.005 E4.06566
G1 X114.445 Y88.887 E4.09535
G1 X114.652 Y91.077 E4.16851
G1 X114.685 Y91.845 E4.19408
G1 X114.637 Y92.613 E4.21967
G1 X114.448 Y93.631 E4.25411
G1 X114.233 Y94.46 E4.2826
G1 X114.001 Y95.193 E4.30817
G1 X113.695 Y95.899 E4.33376
G1 X113.317 Y96.569 E4.35935
G1 X112.872 Y97.196 E4.38492
G1 X112.363 Y97.773 E4.41051
G1 X111.798 Y98.295 E4.4361
G1 X111.087 Y98.826 E4.46561
G1 X110.874 Y99.241 E4.48113
G1 X110.454 Y99.886 E4.50673
G1 X109.97 Y100.483 E4.53229
G1 X109.426 Y101.027 E4.55788
G1 X108.829 Y101.512 E4.58346
G1 X108.184 Y101.931 E4.60904
G1 X107.5 Y102.282 E4.63461
G1 X106.876 Y102.529 E4.65693
G1 X105.729 Y102.923 E4.69727
G1 X105.364 Y103.037 E4.70999
G1 X103.994 Y103.43 E4.75739
G1 X102.354 Y103.888 E4.81403
G1 X101.251 Y104.18 E4.85198
G1 X100.358 Y104.358 E4.88226
G1 X98.226 Y104.649 E4.95383
G1 X97.459 Y104.713 E4.97943
G1 X96.69 Y104.698 E5.00501
G1 X95.927 Y104.602 E5.03059
G1 X95.178 Y104.428 E5.05616
G1 X94.451 Y104.177 E5.08174
G1 X93.754 Y103.852 E5.10732
G1 X92.785 Y103.237 E5.14549
G1 X90.317 Y101.386 E5.2481
G1 X89.726 Y100.893 E5.2737
G1 X89.19 Y100.342 E5.29927
G1 X88.714 Y99.738 E5.32484
G1 X88.207 Y98.909 E5.35716
G1 X87.041 Y96.691 E5.44051
G1 X86.719 Y95.993 E5.46608
G1 X86.471 Y95.265 E5.49166
G1 X86.252 Y94.199 E5.52785
G1 X85.948 Y91.853 E5.60653
G1 X85.889 Y91.086 E5.63212
G1 X85.91 Y90.317 E5.6577
G1 X86.089 Y89.185 E5.69582
G1 X86.606 Y87.018 E5.76992
G1 X86.823 Y86.28 E5.7955
G1 X87.116 Y85.568 E5.82111
G1 X87.494 Y84.87 E5.84751
G1 X88.632 Y83.012 E5.91998
G1 X89.067 Y82.378 E5.94555
G1 X89.566 Y81.792 E5.97115
G0 F6000 X89.884 Y82.037
G1 F1200 X90.501 Y81.466 E5.99912
G1 X92.192 Y80.078 E6.07188
G1 X92.795 Y79.635 E6.09676
G1 X93.441 Y79.259 E6.12163
G1 X93.866 Y79.059 E6.13725
G1 X95.795 Y78.229 E6.20709
G1 X96.497 Y77.97 E6.23198
G1 X97.223 Y77.788 E6.25687
G1 X97.803 Y77.7 E6.27639
G1 X99.931 Y77.468 E6.34758
G1 X100.678 Y77.427 E6.37247
G1 X101.425 Y77.466 E6.39735
G1 X102.08 Y77.566 E6.41938
G1 X104.203 Y77.996 E6.49143
G1 X104.927 Y78.184 E6.51631
G1 X105.627 Y78.447 E6.54118
G1 X106.272 Y78.771 E6.56519
G1 X108.109 Y79.815 E6.63546
G1 X108.738 Y80.219 E6.66033
G1 X109.321 Y80.688 E6.68521
G1 X109.522 Y80.87 E6.69423
G1 X110.019 Y81.374 E6.71777
G1 X111.413 Y82.941 E6.78753
G1 X111.88 Y83.526 E6.81243
G1 X112.281 Y84.157 E6.83729
G1 X112.567 Y84.722 E6.85836
G1 X113.462 Y86.711 E6.9309
G1 X113.732 Y87.408 E6.95576
G1 X113.926 Y88.131 E6.98066
G1 X114.047 Y88.924 E7.00734
G1 X114.254 Y91.114 E7.0805
G1 X114.284 Y91.862 E7.1054
G1 X114.235 Y92.608 E7.13027
G1 X114.061 Y93.53 E7.16147
G1 X113.846 Y94.359 E7.18996
G1 X113.62 Y95.072 E7.21484
G1 X113.319 Y95.757 E7.23972
G1 X112.946 Y96.406 E7.26462
G1 X112.507 Y97.011 E7.28948
G1 X112.005 Y97.566 E7.31437
G1 X111.447 Y98.065 E7.33927
G1 X110.807 Y98.518 E7.36535
G1 X110.412 Y99.234 E7.39255
G1 X109.983 Y99.847 E7.41743
G1 X109.491 Y100.41 E7.4423
G1 X108.941 Y100.918 E7.4672
G1 X108.341 Y101.364 E7.49207
G1 X107.696 Y101.743 E7.51695
G1 X106.746 Y102.15 E7.55132
G1 X105.599 Y102.544 E7.59166
G1 X105.254 Y102.653 E7.60369
G1 X103.886 Y103.045 E7.65103
G1 X102.251 Y103.501 E7.70748
G1 X101.148 Y103.793 E7.74543
G1 X100.304 Y103.962 E7.77406
G1 X98.172 Y104.253 E7.84563
G1 X97.426 Y104.314 E7.87052
G1 X96.678 Y104.296 E7.89541
G1 X95.937 Y104.197 E7.92027
G1 X95.21 Y104.021 E7.94515
G1 X94.506 Y103.767 E7.97004
G1 X93.833 Y103.44 E7.99493
G1 X93.025 Y102.917 E8.02694
G1 X90.557 Y101.066 E8.12955
G1 X89.983 Y100.586 E8.15444
G1 X89.464 Y100.047 E8.17933
G1 X89.006 Y99.456 E8.20419
G1 X88.561 Y98.723 E8.23271
G1 X87.395 Y96.505 E8.31606
G1 X87.083 Y95.825 E8.34094
G1 X86.845 Y95.116 E8.36582
G1 X86.649 Y94.148 E8.39867
G1 X86.345 Y91.802 E8.47735
G1 X86.289 Y91.056 E8.50223
G1 X86.312 Y90.308 E8.52712
G1 X86.478 Y89.278 E8.56182
G1 X86.995 Y87.111 E8.63592
G1 X87.207 Y86.393 E8.66082
G1 X87.495 Y85.703 E8.68568
G1 X87.835 Y85.079 E8.70932
G1 X88.973 Y83.221 E8.78179
G1 X89.397 Y82.605 E8.80666
G1 X89.884 Y82.037 E8.83154
G0 F6000 X90.203 Y82.284
G1 F1200 X90.755 Y81.775 E8.85652
G1 X92.446 Y80.387 E8.92928
G1 X93.032 Y79.958 E8.95344
G1 X93.661 Y79.596 E8.97757
G1 X94.024 Y79.426 E8.99091
G1 X95.953 Y78.596 E9.06075
G1 X96.635 Y78.346 E9.08491
G1 X97.341 Y78.173 E9.10909
G1 X97.847 Y78.098 E9.1261
G1 X99.975 Y77.866 E9.1973
G1 X100.7 Y77.827 E9.22145
G1 X101.425 Y77.868 E9.2456
G1 X102 Y77.958 E9.26496
G1 X104.123 Y78.388 E9.337
G1 X104.826 Y78.571 E9.36116
G1 X105.505 Y78.831 E9.38535
G1 X106.074 Y79.119 E9.40656
G1 X107.911 Y80.163 E9.47683
G1 X108.522 Y80.556 E9.501
G1 X109.086 Y81.014 E9.52516
G1 X109.435 Y81.368 E9.54169
G1 X109.72 Y81.64 E9.5548
G1 X111.114 Y83.207 E9.62455
G1 X111.566 Y83.776 E9.64872
G1 X111.953 Y84.39 E9.67286
G1 X112.202 Y84.886 E9.69132
G1 X113.097 Y86.875 E9.76387
G1 X113.358 Y87.553 E9.78803
G1 X113.543 Y88.255 E9.81218
G1 X113.649 Y88.962 E9.83595
G1 X113.856 Y91.152 E9.90912
G1 X113.884 Y91.878 E9.93328
G1 X113.833 Y92.602 E9.95742
G1 X113.674 Y93.43 E9.98546
G1 X113.459 Y94.259 E10.01395
G1 X113.238 Y94.951 E10.03811
G1 X112.942 Y95.614 E10.06226
G1 X112.576 Y96.241 E10.08641
G1 X112.143 Y96.824 E10.11056
G1 X111.648 Y97.356 E10.13473
G1 X111.098 Y97.831 E10.1589
G1 X110.471 Y98.257 E10.18411
G1 X110.318 Y98.593 E10.19639
G1 X109.946 Y99.217 E10.22056
G1 X109.508 Y99.796 E10.2447
G1 X109.009 Y100.324 E10.26887
G1 X108.454 Y100.793 E10.29303
G1 X107.852 Y101.199 E10.31718
G1 X107.209 Y101.536 E10.34133
G1 X106.616 Y101.772 E10.36256
G1 X105.469 Y102.166 E10.40289
G1 X105.144 Y102.268 E10.41422
G1 X103.779 Y102.66 E10.46146
G1 X102.236 Y103.091 E10.51474
G1 X101.046 Y103.406 E10.55569
G1 X100.25 Y103.565 E10.58268
G1 X98.118 Y103.856 E10.65425
G1 X97.394 Y103.915 E10.67841
G1 X96.668 Y103.893 E10.70257
G1 X95.948 Y103.792 E10.72675
G1 X95.244 Y103.613 E10.75091
G1 X94.565 Y103.357 E10.77505
G1 X93.917 Y103.028 E10.79922
G1 X93.265 Y102.597 E10.82522
G1 X90.797 Y100.746 E10.92782
G1 X90.241 Y100.279 E10.95197
G1 X89.739 Y99.753 E10.97616
G1 X89.298 Y99.176 E11.00031
G1 X88.915 Y98.537 E11.02509
G1 X87.749 Y96.319 E11.10843
G1 X87.447 Y95.659 E11.13257
G1 X87.219 Y94.969 E11.15674
G1 X87.046 Y94.096 E11.18634
G1 X86.742 Y91.75 E11.26502
G1 X86.688 Y91.026 E11.28917
G1 X86.715 Y90.3 E11.31334
G1 X86.867 Y89.37 E11.34468
G1 X87.384 Y87.203 E11.41878
G1 X87.591 Y86.507 E11.44293
G1 X87.874 Y85.838 E11.46709
G1 X88.176 Y85.288 E11.48796
G1 X89.314 Y83.43 E11.56042
G1 X89.727 Y82.832 E11.5846
G1 X90.203 Y82.284 E11.60874
G0 F6000 X90.52 Y82.531
G1 F1200 X91.008 Y82.085 E11.63073
G1 X92.699 Y80.697 E11.70349
G1 X93.268 Y80.282 E11.72691
G1 X94.183 Y79.794 E11.7614
G1 X96.112 Y78.964 E11.83125
G1 X96.773 Y78.723 E11.85465
G1 X97.457 Y78.558 E11.87805
G1 X97.89 Y78.496 E11.8926
G1 X100.018 Y78.264 E11.9638
G1 X100.721 Y78.227 E11.98721
G1 X101.424 Y78.271 E12.01064
G1 X101.921 Y78.35 E12.02738
G1 X104.044 Y78.78 E12.09942
G1 X104.725 Y78.959 E12.12284
G1 X105.381 Y79.214 E12.14625
G1 X105.876 Y79.467 E12.16474
G1 X107.713 Y80.511 E12.23502
G1 X108.305 Y80.893 E12.25845
G1 X108.849 Y81.339 E12.28185
G1 X109.421 Y81.906 E12.30864
G1 X110.815 Y83.473 E12.37839
G1 X111.253 Y84.025 E12.40183
G1 X111.625 Y84.623 E12.42525
G1 X111.837 Y85.05 E12.44111
G1 X112.732 Y87.039 E12.51365
G1 X112.984 Y87.696 E12.53706
G1 X113.16 Y88.378 E12.56048
G1 X113.25 Y89 E12.58139
G1 X113.457 Y91.19 E12.65455
G1 X113.484 Y91.893 E12.67795
G1 X113.43 Y92.595 E12.70137
G1 X113.286 Y93.329 E12.72625
G1 X113.071 Y94.158 E12.75473
G1 X112.856 Y94.829 E12.77817
G1 X112.567 Y95.47 E12.80155
G1 X112.206 Y96.075 E12.82499
G1 X111.779 Y96.635 E12.84841
G1 X111.292 Y97.143 E12.87181
G1 X110.75 Y97.592 E12.89522
G1 X110.172 Y97.969 E12.91818
G1 X109.86 Y98.598 E12.94153
G1 X109.477 Y99.189 E12.96495
G1 X109.03 Y99.732 E12.98835
G1 X108.525 Y100.222 E13.01175
G1 X107.967 Y100.651 E13.03516
G1 X107.364 Y101.014 E13.05857
G1 X106.486 Y101.394 E13.09039
G1 X105.339 Y101.788 E13.13073
G1 X105.034 Y101.884 E13.14136
G1 X102.047 Y102.728 E13.2446
G1 X100.944 Y103.02 E13.28255
G1 X100.195 Y103.169 E13.30795
G1 X98.063 Y103.46 E13.37952
G1 X97.362 Y103.515 E13.4029
G1 X96.658 Y103.491 E13.42633
G1 X95.962 Y103.387 E13.44974
G1 X95.282 Y103.205 E13.47315
G1 X94.627 Y102.946 E13.49658
G1 X94.006 Y102.616 E13.51997
G1 X93.505 Y102.277 E13.54009
G1 X91.037 Y100.426 E13.64269
G1 X90.499 Y99.972 E13.66611
G1 X90.015 Y99.461 E13.68952
G1 X89.593 Y98.897 E13.71295
G1 X89.269 Y98.351 E13.73406
G1 X88.103 Y96.133 E13.81741
G1 X87.811 Y95.492 E13.84083
G1 X87.594 Y94.823 E13.86423
G1 X87.442 Y94.045 E13.89059
G1 X87.138 Y91.699 E13.96927
G1 X87.088 Y90.997 E13.99268
G1 X87.117 Y90.293 E14.01612
G1 X87.256 Y89.463 E14.04411
G1 X87.773 Y87.296 E14.1182
G1 X87.975 Y86.622 E14.14161
G1 X88.252 Y85.975 E14.16501
G1 X88.517 Y85.497 E14.18319
G1 X89.655 Y83.639 E14.25566
G1 X90.056 Y83.06 E14.27909
G1 X90.52 Y82.531 E14.30249
G0 F6000 X90.837 Y82.78
G1 F1200 X91.262 Y82.394 E14.32158
G1 X92.953 Y81.006 E14.39435
G1 X93.504 Y80.605 E14.41701
G1 X94.341 Y80.161 E14.44853
G1 X96.27 Y79.331 E14.51837
G1 X96.91 Y79.099 E14.54101
G1 X97.573 Y78.944 E14.56366
G1 X97.933 Y78.893 E14.57575
G1 X100.061 Y78.661 E14.64695
G1 X100.741 Y78.627 E14.6696
G1 X101.421 Y78.673 E14.69226
G1 X101.841 Y78.742 E14.70642
G1 X103.964 Y79.172 E14.77847
G1 X104.623 Y79.347 E14.80114
G1 X105.256 Y79.597 E14.82378
G1 X105.679 Y79.814 E14.83959
G1 X107.516 Y80.858 E14.90987
G1 X108.087 Y81.229 E14.93252
G1 X108.611 Y81.664 E14.95517
G1 X108.881 Y81.917 E14.96748
G1 X109.122 Y82.172 E14.97914
G1 X110.516 Y83.739 E15.0489
G1 X110.938 Y84.273 E15.07154
G1 X111.295 Y84.854 E15.09422
G1 X111.472 Y85.214 E15.10756
G1 X112.367 Y87.203 E15.18011
G1 X112.61 Y87.839 E15.20275
G1 X112.776 Y88.5 E15.22542
G1 X112.852 Y89.037 E15.24346
G1 X113.059 Y91.227 E15.31662
G1 X113.083 Y91.908 E15.33929
G1 X113.028 Y92.586 E15.36191
G1 X112.899 Y93.229 E15.38372
G1 X112.684 Y94.058 E15.41221
G1 X112.475 Y94.706 E15.43485
G1 X112.191 Y95.325 E15.4575
G1 X111.837 Y95.906 E15.48013
G1 X111.417 Y96.442 E15.50278
G1 X110.937 Y96.925 E15.52543
G1 X110.403 Y97.348 E15.54809
G1 X109.842 Y97.695 E15.57003
G1 X109.723 Y97.993 E15.5807
G1 X109.398 Y98.592 E15.60337
G1 X109.005 Y99.148 E15.62601
G1 X108.55 Y99.654 E15.64865
G1 X108.039 Y100.104 E15.67129
G1 X107.478 Y100.49 E15.69394
G1 X106.876 Y100.808 E15.71659
G1 X106.356 Y101.015 E15.7352
G1 X105.209 Y101.409 E15.77554
G1 X104.923 Y101.499 E15.78551
G1 X103.563 Y101.889 E15.83257
G1 X101.944 Y102.341 E15.88848
G1 X100.841 Y102.633 E15.92643
G1 X100.141 Y102.773 E15.95017
G1 X98.009 Y103.064 E16.02174
G1 X97.331 Y103.116 E16.04435
G1 X96.65 Y103.088 E16.06702
G1 X95.978 Y102.981 E16.08965
G1 X95.323 Y102.796 E16.11229
G1 X94.694 Y102.535 E16.13494
G1 X94.099 Y102.203 E16.1576
G1 X93.745 Y101.957 E16.17194
G1 X91.277 Y100.106 E16.27455
G1 X90.757 Y99.666 E16.29721
G1 X90.293 Y99.169 E16.31982
G1 X89.889 Y98.62 E16.34249
G1 X89.623 Y98.165 E16.36002
G1 X88.457 Y95.947 E16.44336
G1 X88.176 Y95.327 E16.46601
G1 X87.97 Y94.678 E16.48865
G1 X87.839 Y93.993 E16.51185
G1 X87.535 Y91.647 E16.59053
G1 X87.487 Y90.968 E16.61317
G1 X87.52 Y90.288 E16.63581
G1 X87.645 Y89.556 E16.66051
G1 X88.162 Y87.389 E16.73461
G1 X88.359 Y86.737 E16.75726
G1 X88.631 Y86.113 E16.7799
G1 X88.858 Y85.706 E16.7954
G1 X89.996 Y83.848 E16.86787
G1 X90.385 Y83.289 E16.89052
G1 X90.837 Y82.78 E16.91316
G0 F6000 X91.153 Y83.03
G1 F1200 X91.516 Y82.703 E16.92941
G1 X93.207 Y81.315 E17.00218
G1 X93.739 Y80.93 E17.02402
G1 X94.499 Y80.529 E17.0526
G1 X96.428 Y79.699 E17.12244
G1 X97.046 Y79.476 E17.1443
G1 X97.977 Y79.291 E17.17587
G1 X100.105 Y79.059 E17.24706
G1 X100.761 Y79.027 E17.26891
